img/download.svg

<svg viewBox="0 0 20 20" xmlns="http://www.w3.org/2000/svg"><title>Download icon</title><path d="M12 11.657V6h-1v5.65L9.076 9.414l-.758.65 3.183 3.702 3.195-3.7-.758-.653L12 11.657zM11.5 2C7.358 2 4 5.358 4 9.5c0 4.142 3.358 7.5 7.5 7.5 4.142 0 7.5-3.358 7.5-7.5C19 5.358 15.642 2 11.5 2zm0 14C7.916 16 5 13.084 5 9.5S7.916 3 11.5 3 18 5.916 18 9.5 15.084 16 11.5 16z" fill="#ffffff" fill-rule="evenodd"/></svg>

<?xml version="1.0" encoding="UTF-8" standalone="no"?>
<!DOCTYPE svg PUBLIC "-//W3C//DTD SVG 1.1//EN" "http://www.w3.org/Graphics/SVG/1.1/DTD/svg11.dtd">
<svg width="100%" height="100%" viewBox="0 0 20 20" version="1.1" xmlns="http://www.w3.org/2000/svg" xmlns:xlink="http://www.w3.org/1999/xlink" xml:space="preserve" xmlns:serif="http://www.serif.com/" style="fill-rule:evenodd;clip-rule:evenodd;stroke-linejoin:round;stroke-miterlimit:2;">
    <g transform="matrix(1,0,0,1,-1.5,0.5)">
        <path d="M12,11.657L12,6L11,6L11,11.65L9.076,9.414L8.318,10.064L11.501,13.766L14.696,10.066L13.938,9.413L12,11.657ZM11.5,2C7.358,2 4,5.358 4,9.5C4,13.642 7.358,17 11.5,17C15.642,17 19,13.642 19,9.5C19,5.358 15.642,2 11.5,2ZM11.5,16C7.916,16 5,13.084 5,9.5C5,5.916 7.916,3 11.5,3C15.084,3 18,5.916 18,9.5C18,13.084 15.084,16 11.5,16Z" style="fill:white;"/>
    </g>
</svg>
